X: 1
T: Mistwold
C: Dudley Laufman 1973
R: march
%S: s:2 b:16(8+8)
S: Fiddle Hell Online 2021-04-15 Rodney Miller jam handout
Z: 2021 John Chambers <jc:trillian.mit.edu>
M: 2/4
L: 1/8
K: G
D |\
"G"GA Bc | d2 Bd | "D"c2 Ac | "G"BA/G/ "D"AD |\
"G"GA Bc | d2 Bd | "D"cA GF |1 G3 :|2 G ||
|: A Bc |\
"G"d2 Bd | "D7"c2 Ac | "G"B>A GB | "D"A2 D2 |\
"C"E2 "D"F2 | "Em"G2 "C"Ac | "G"B2 "D"A2 |1 "G"G :|2 "G"G3 |]
